svgs/light/circle-plus.svg

<svg xmlns="http://www.w3.org/2000/svg" viewBox="0 0 512 512"><!-- Font Awesome Pro 6.0.0-alpha2 by @fontawesome - https://fontawesome.com License - https://fontawesome.com/license (Commercial License) --><path d="M352 240H272V160C272 151.156 264.844 144 256 144S240 151.156 240 160V240H160C151.156 240 144 247.156 144 256S151.156 272 160 272H240V352C240 360.844 247.156 368 256 368S272 360.844 272 352V272H352C360.844 272 368 264.844 368 256S360.844 240 352 240ZM256 16C123.451 16 16 123.451 16 256S123.451 496 256 496S496 388.549 496 256S388.549 16 256 16ZM256 464C141.309 464 48 370.691 48 256S141.309 48 256 48S464 141.309 464 256S370.691 464 256 464Z"/></svg>

<svg xmlns="http://www.w3.org/2000/svg" viewBox="0 0 512 512"><!--! Font Awesome Pro 6.4.0 by @fontawesome - https://fontawesome.com License - https://fontawesome.com/license (Commercial License) Copyright 2023 Fonticons, Inc. --><path d="M256 32a224 224 0 1 1 0 448 224 224 0 1 1 0-448zm0 480A256 256 0 1 0 256 0a256 256 0 1 0 0 512zM240 352c0 8.8 7.2 16 16 16s16-7.2 16-16V272h80c8.8 0 16-7.2 16-16s-7.2-16-16-16H272V160c0-8.8-7.2-16-16-16s-16 7.2-16 16v80H160c-8.8 0-16 7.2-16 16s7.2 16 16 16h80v80z"/></svg>
